X:1
T:Title
%%score { ( 1 2 4 ) | ( 3 5 ) }
L:1/8
Q:1/4=90
M:2/4
K:D
V:1 treble nm="Grand Piano"
V:2 treble 
V:4 treble 
V:3 bass 
V:5 bass 
V:1
 [DF]2 z2 | F2 [FA]2 | [EG]2 z2 | [EG]2 [DF]2 | [Fd]2 z2 | [FA]2 z2 | [EG]2 z2 | [EG]2 [DF]2 | %8
w: F.~V.~Weisenthal||||||||
 [FA]2 [DF][DF] | [Fd]2 [FA][FA] | [Ge]2 [Ec][Ec] | [Fd]2 z [Fd] | [Fd]2 Be | c2 [EA][EA] | %14
w: ||||||
 .[FB]2 [^G,E][B,D^G] |[M:5/8] [A,CA]3 AA |[M:2/4] [FA]2 [FA][FA] | [EG]2 [EG][EG] | %18
w: ||||
 [DF][DF] [DF]2 | [CE]4 | [Fd]2 z2 | [FA]2 z2 | [FA][DF] [EG][CE] | DE/F/ G/A/B/c/ | %24
w: ||||||
 [Fd]2 [FA][FA] | [FA]2 [DF]2 | [Ge]2 [Gc][EG] | [EG]2 [DF]2 | [Ff]2 [Fd][Fd] | d2 cB | %30
w: ||||||
 AB/A/ [EG]/F/[A,EG]/[CE]/ | [F,D]4 |[M:3/4] [DGB]3 [FA]3 |] %33
w: |||
V:2
 z A, FF | z A, .A,>G | .A,>F [EG][CE] | z A, A,A, | z [D,A,] [Ec][Fd] | z A, FF | %6
 z z/ F/ [EG][CE] | x4 | x4 | x4 | x4 | x4 | x4 | x4 | x4 |[M:5/8] x5 |[M:2/4] x4 | x4 | x4 | x4 | %20
 z [D,A,] [Ec][Fd] | z A, [A,FA][GB] | x4 | x4 | x4 | x4 | x4 | x4 | x4 | x4 | x4 | x4 | %32
[M:3/4] x6 |] %33
V:3
 [D,A,]D, [D,A,D][D,A,D] | D2 z D, | .A,,>D [A,,A,][A,,A,] | [A,,A,]A,, D,D, | %4
 .[D,A,]2 [D,A,][D,A,] | [D,A,]D, [D,A,D][D,A,D] | .[A,,A,]>D [A,,A,][A,,A,] | %7
 [A,,A,][A,,A,] [D,A,]2 | [D,D]2 [D,A,][D,A,] | [D,A,]2 [D,D][D,D] | [G,,B,]2 [A,,A,][A,,A,] | %11
 [D,A,]2 z [D,A,] | [B,,B,]2 [E,B,E][E,^G,E] | [A,E]2 [C,A,][C,A,] | z[K:treble] d[K:bass] E,E, | %15
[M:5/8] A,,3[K:treble] FF |[M:2/4][K:bass] [A,,A,][A,,A,] [A,,A,][A,,A,] | %17
 [A,,A,][A,,A,] [A,,A,][A,,A,] | [A,,A,][A,,A,] [A,,A,][A,,A,] | [A,,A,]4 | .[D,A,]2 [D,A,][D,A,] | %21
 [D,A,]D, D,[D,A,] | [A,,A,][A,,A,] [A,,A,][A,,G,] | [D,F,]4 | [D,A,]2 [D,D][D,D] | %25
 [D,D]2 [D,A,]2 | [G,,B,]2 [A,,A,][A,,A,] | [D,A,]2 [D,A,]2 | [B,,D]2 [B,,B,][B,,B,] | %29
 [G,B,G]2 [G,DG][G,DG] | [A,DF]G/F/[K:bass] z/ .DG,/ | D,4 |[M:3/4] [G,,G,]3 [D,D]3 |] %33
V:4
 x4 | z2 z A, | z A, z2 | x4 | x4 | x4 | z A, z2 | x4 | x4 | x4 | x4 | x4 | x4 | x4 | x4 | %15
[M:5/8] x5 |[M:2/4] x4 | x4 | x4 | x4 | x4 | x4 | x4 | x4 | x4 | x4 | x4 | x4 | x4 | x4 | x4 | x4 | %32
[M:3/4] x6 |] %33
V:5
 x4 | [D,A,]D, .D,>E | z A,, z2 | x4 | x4 | x4 | z A,, z2 | x4 | x4 | x4 | x4 | x4 | x4 | x4 | %14
 [D,A,]2[K:treble][K:bass] z2 |[M:5/8] x3[K:treble] x2 |[M:2/4][K:bass] x4 | x4 | x4 | x4 | x4 | %21
 x4 | x4 | x4 | x4 | x4 | x4 | x4 | x4 | x4 | z [A,D][K:bass] [A,,A,]A,, | x4 |[M:3/4] x6 |] %33

